polaris-icons/icons/new-icons/DiscountsMajor.svg

<svg width="20" height="20" viewBox="0 0 20 20" fill="none" xmlns="http://www.w3.org/2000/svg">
<path d="M12.7803 8.28033C13.0732 7.98744 13.0732 7.51256 12.7803 7.21967C12.4874 6.92678 12.0126 6.92678 11.7197 7.21967L7.21967 11.7197C6.92678 12.0126 6.92678 12.4874 7.21967 12.7803C7.51256 13.0732 7.98744 13.0732 8.28033 12.7803L12.7803 8.28033Z" fill="#4A4A4A"/>
<path d="M9 8C9 8.55228 8.55228 9 8 9C7.44772 9 7 8.55228 7 8C7 7.44772 7.44772 7 8 7C8.55228 7 9 7.44772 9 8Z" fill="#4A4A4A"/>
<path d="M12 13C12.5523 13 13 12.5523 13 12C13 11.4477 12.5523 11 12 11C11.4477 11 11 11.4477 11 12C11 12.5523 11.4477 13 12 13Z" fill="#4A4A4A"/>
<path fill-rule="evenodd" clip-rule="evenodd" d="M12.0943 3.51441C11.2723 1.72371 8.72775 1.72371 7.90568 3.51441C7.73011 3.89684 7.28948 4.07936 6.89491 3.93308C5.04741 3.24816 3.24816 5.04741 3.93308 6.89491C4.07936 7.28948 3.89684 7.73011 3.51441 7.90568C1.72371 8.72775 1.72371 11.2723 3.51441 12.0943C3.89684 12.2699 4.07936 12.7105 3.93308 13.1051C3.24816 14.9526 5.04741 16.7519 6.89491 16.0669C7.28948 15.9207 7.73011 16.1032 7.90568 16.4856C8.72775 18.2763 11.2723 18.2763 12.0943 16.4856C12.2699 16.1032 12.7105 15.9207 13.1051 16.0669C14.9526 16.7519 16.7519 14.9526 16.0669 13.1051C15.9207 12.7105 16.1032 12.2699 16.4856 12.0943C18.2763 11.2723 18.2763 8.72775 16.4856 7.90568C16.1032 7.73011 15.9207 7.28948 16.0669 6.89491C16.7519 5.04741 14.9526 3.24816 13.1051 3.93308C12.7105 4.07936 12.2699 3.89684 12.0943 3.51441ZM9.26889 4.14023C9.55587 3.51511 10.4441 3.51511 10.7311 4.14023C11.2341 5.23573 12.4963 5.75856 13.6265 5.33954C14.2715 5.10044 14.8996 5.72855 14.6605 6.3735C14.2415 7.50376 14.7643 8.76597 15.8598 9.26889C16.4849 9.55587 16.4849 10.4441 15.8598 10.7311C14.7643 11.2341 14.2415 12.4963 14.6605 13.6265C14.8996 14.2715 14.2715 14.8996 13.6265 14.6605C12.4963 14.2415 11.2341 14.7643 10.7311 15.8598C10.4441 16.4849 9.55587 16.4849 9.26889 15.8598C8.76597 14.7643 7.50376 14.2415 6.3735 14.6605C5.72855 14.8996 5.10044 14.2715 5.33954 13.6265C5.75856 12.4963 5.23573 11.2341 4.14023 10.7311C3.51511 10.4441 3.51511 9.55587 4.14023 9.26889C5.23573 8.76597 5.75856 7.50376 5.33954 6.3735C5.10044 5.72855 5.72855 5.10044 6.3735 5.33954C7.50376 5.75856 8.76597 5.23573 9.26889 4.14023Z" fill="#4A4A4A"/>
</svg>

<svg viewBox="0 0 20 20" xmlns="http://www.w3.org/2000/svg"><path d="M12.78 8.28a.75.75 0 0 0-1.06-1.06l-4.5 4.5a.75.75 0 1 0 1.06 1.06l4.5-4.5Z" fill="#5C5F62"/><path d="M9 8a1 1 0 1 1-2 0 1 1 0 0 1 2 0Z" fill="#5C5F62"/><path d="M12 13a1 1 0 1 0 0-2 1 1 0 0 0 0 2Z" fill="#5C5F62"/><path fill-rule="evenodd" d="M12.094 3.514c-.822-1.79-3.366-1.79-4.188 0a.804.804 0 0 1-1.011.42c-1.848-.686-3.647 1.113-2.962 2.96a.804.804 0 0 1-.419 1.012c-1.79.822-1.79 3.366 0 4.188a.805.805 0 0 1 .42 1.011c-.686 1.848 1.113 3.647 2.96 2.962a.805.805 0 0 1 1.012.419c.822 1.79 3.366 1.79 4.188 0a.805.805 0 0 1 1.011-.42c1.848.686 3.647-1.113 2.962-2.96a.805.805 0 0 1 .419-1.012c1.79-.822 1.79-3.366 0-4.188a.805.805 0 0 1-.42-1.011c.686-1.848-1.113-3.647-2.96-2.962a.805.805 0 0 1-1.012-.419Zm-2.825.626a.804.804 0 0 1 1.462 0 2.305 2.305 0 0 0 2.896 1.2.804.804 0 0 1 1.034 1.034 2.304 2.304 0 0 0 1.199 2.895.804.804 0 0 1 0 1.462 2.305 2.305 0 0 0-1.2 2.896.805.805 0 0 1-1.034 1.034 2.305 2.305 0 0 0-2.895 1.199.804.804 0 0 1-1.462 0 2.304 2.304 0 0 0-2.896-1.2.804.804 0 0 1-1.033-1.034 2.305 2.305 0 0 0-1.2-2.895.804.804 0 0 1 0-1.462 2.304 2.304 0 0 0 1.2-2.896.804.804 0 0 1 1.034-1.033 2.304 2.304 0 0 0 2.895-1.2Z" fill="#5C5F62"/></svg>
